src/assets/svgs/arrow-right.svg

<svg fill="none" height="8" viewBox="0 0 15 8" width="15" xmlns="http://www.w3.org/2000/svg"><path d="m14.3536 4.35355c.1952-.19526.1952-.51184 0-.7071l-3.182-3.181984c-.1953-.195262-.5119-.195262-.7071 0-.1953.195262-.1953.511845 0 .707104l2.8284 2.82843-2.8284 2.82843c-.1953.19526-.1953.51184 0 .7071.1952.19527.5118.19527.7071 0zm-14.3536.14645h14v-1h-14z" fill="#333"/></svg>

<svg width="15" height="8" viewBox="0 0 15 8" fill="none" xmlns="http://www.w3.org/2000/svg">
  <path d="M14.3536 4.35355C14.5488 4.15829 14.5488 3.84171 14.3536 3.64645L11.1716 0.464466C10.9763 0.269204 10.6597 0.269204 10.4645 0.464466C10.2692 0.659728 10.2692 0.976311 10.4645 1.17157L13.2929 4L10.4645 6.82843C10.2692 7.02369 10.2692 7.34027 10.4645 7.53553C10.6597 7.7308 10.9763 7.7308 11.1716 7.53553L14.3536 4.35355ZM0 4.5H14V3.5H0V4.5Z" fill="#333333"/>
</svg>
